X:13039
T:Miss Menager's Hornpipe
T:Miss Meragers
R:Hornpipe
C:Trad.
O:England, Suffolk, William Clarke of Feltwell
Z:Paul Hardy's Session Tunebook 2015 (see www.paulhardy.net). Creative Commons cc by-nc-sa licenced.
M:4/4
L:1/8
Q:1/4=160
K:G
dc|"G"BcAB G2 AB|"D"cdBc A2 dc|"G"Bded Bded|"C"cdBc A2 dc|
"G"BcAB G2 AB|"C"cdBc A2 dc|"G"BdcB "D"AcBA|"G"G2G2G2:|
|:DE|"D7"FGAB c2BA|"G"BGBd g2 gf|"C"feed "G"dccB|"D"AGFG "D7"A2 dc|
"G"BcAB G2 AB|"C"cdBcA2 dc|"G" BdcB "D"AcBA|"G"G2 G2 G2:|

